app/assets/images/remix_icon/health/empathize-fill.svg

<svg viewBox="0 0 24 24" xmlns="http://www.w3.org/2000/svg"><path d="M18.3643 10.9792C19.9264 12.5413 19.9264 15.0739 18.3643 16.636L12.7075 22.2929C12.317 22.6834 11.6838 22.6834 11.2933 22.2929L5.63642 16.636C4.07432 15.0739 4.07432 12.5413 5.63642 10.9792C7.19851 9.41709 9.73117 9.41709 11.2933 10.9792L11.9997 11.6856L12.7075 10.9792C14.2696 9.41709 16.8022 9.41709 18.3643 10.9792ZM12.0004 1C14.2095 1 16.0004 2.79086 16.0004 5C16.0004 7.20914 14.2095 9 12.0004 9C9.79124 9 8.00038 7.20914 8.00038 5C8.00038 2.79086 9.79124 1 12.0004 1Z"/></svg>

<svg xmlns="http://www.w3.org/2000/svg" viewBox="0 0 24 24">
    <g>
        <path fill="none" d="M0 0H24V24H0z"/>
        <path d="M18.364 10.98c1.562 1.561 1.562 4.094 0 5.656l-5.657 5.657c-.39.39-1.024.39-1.414 0l-5.657-5.657c-1.562-1.562-1.562-4.095 0-5.657 1.562-1.562 4.095-1.562 5.657 0l.706.707.708-.707c1.562-1.562 4.095-1.562 5.657 0zM12 1c2.21 0 4 1.79 4 4s-1.79 4-4 4-4-1.79-4-4 1.79-4 4-4z"/>
    </g>
</svg>
